CodeEditor2VerilogPlugin/CodeEditor2VerilogPlugin/Assets/Icons/questionDocument.svg

<?xml version="1.0" encoding="UTF-8" standalone="no"?>
<!--?xml version="1.0" encoding="utf-8"?-->

<!-- Generator: Adobe Illustrator 18.0.0, SVG Export Plug-In . SVG Version: 6.00 Build 0)  -->

<svg
   version="1.1"
   id="_x32_"
   x="0px"
   y="0px"
   viewBox="0 0 512 512"
   style="width: 256px; height: 256px; opacity: 1;"
   xml:space="preserve"
   sodipodi:docname="questionDocument.svg"
   inkscape:version="1.3.2 (091e20e, 2023-11-25, custom)"
   xmlns:inkscape="http://www.inkscape.org/namespaces/inkscape"
   xmlns:sodipodi="http://sodipodi.sourceforge.net/DTD/sodipodi-0.dtd"
   xmlns="http://www.w3.org/2000/svg"
   xmlns:svg="http://www.w3.org/2000/svg"><defs
   id="defs1" /><sodipodi:namedview
   id="namedview1"
   pagecolor="#ffffff"
   bordercolor="#000000"
   borderopacity="0.25"
   inkscape:showpageshadow="2"
   inkscape:pageopacity="0.0"
   inkscape:pagecheckerboard="0"
   inkscape:deskcolor="#d1d1d1"
   inkscape:zoom="1.0947266"
   inkscape:cx="559.04369"
   inkscape:cy="372.23906"
   inkscape:window-width="2256"
   inkscape:window-height="1398"
   inkscape:window-x="-11"
   inkscape:window-y="-11"
   inkscape:window-maximized="1"
   inkscape:current-layer="_x32_" />
<style
   type="text/css"
   id="style1">
	.st0{fill:#4B4B4B;}
</style>
<path
   d="M 133.44141,0.9140625 C 119.79517,0.77299961 100.73395,8.8080607 91.083984,18.457031 L 17.818359,91.722656 C 8.168389,101.37263 0.27539063,120.43311 0.27539063,134.08008 v 354.02148 c 0,13.64697 11.16358837,24.8125 24.81054637,24.8125 H 313.70312 l 114.48047,3.65235 h 58.73047 c 13.64697,0 24.8125,-11.16358 24.8125,-24.81055 V 433.02344 383.40039 29.378906 C 511.72556,15.731948 500.5603,4.7074692 486.91406,4.5664062 Z M 265.63867,65.75 c 42.08519,0 76.89875,11.137631 104.44141,33.412109 27.54266,22.079101 41.31445,49.629451 41.31445,82.650391 0,16.41277 -3.85641,32.04488 -11.56836,46.89453 -7.49161,14.65426 -16.08428,26.08463 -25.7793,34.29102 -9.69501,8.01099 -30.1881,22.17551 -61.47656,42.49609 -8.81365,5.66632 -14.43172,11.23611 -16.85547,16.70703 -2.42375,5.27553 -3.74645,16.90106 -3.96679,34.87695 h -64.44922 v -39.5664 c 0,-13.28653 2.97461,-23.74111 8.92383,-31.36133 6.16955,-7.62022 19.50045,-18.46316 39.99218,-32.53125 31.28846,-21.29753 46.93164,-43.86552 46.93164,-67.70312 0,-17.9759 -6.1687,-32.23995 -18.50781,-42.79102 -12.11877,-10.55107 -27.98338,-15.82617 -47.59375,-15.82617 -45.3903,0 -72.16183,27.84309 -80.31445,83.52929 l -72.05274,-11.42968 c 4.40683,-41.61812 21.70387,-74.24842 51.89063,-97.89063 C 186.97545,77.670209 223.33315,65.75 265.63867,65.75 Z m -38.33984,332.94531 h 77.66992 v 73.27149 h -77.66992 z"
   style="fill:#4b4b4b"
   id="path2" />
</svg>

<?xml version="1.0" encoding="UTF-8" standalone="no"?>
<!DOCTYPE svg PUBLIC "-//W3C//DTD SVG 1.1//EN" "http://www.w3.org/Graphics/SVG/1.1/DTD/svg11.dtd">
<svg width="100%" height="100%" viewBox="0 0 512 512" version="1.1" xmlns="http://www.w3.org/2000/svg" xmlns:xlink="http://www.w3.org/1999/xlink" xml:space="preserve" xmlns:serif="http://www.serif.com/" style="fill-rule:evenodd;clip-rule:evenodd;stroke-linejoin:round;stroke-miterlimit:2;">
    <path id="path2" d="M133.441,0.914C119.795,0.773 100.734,8.808 91.084,18.457L17.818,91.723C8.168,101.373 0.275,120.433 0.275,134.08L0.275,488.102C0.275,501.749 11.439,512.914 25.086,512.914L313.703,512.914L428.184,516.566L486.914,516.566C500.561,516.566 511.727,505.403 511.727,491.756L511.727,29.379C511.726,15.732 500.56,4.707 486.914,4.566L133.441,0.914ZM265.639,65.75C307.724,65.75 342.537,76.888 370.08,99.162C397.623,121.241 411.395,148.792 411.395,181.812C411.395,198.225 407.538,213.857 399.826,228.707C392.335,243.361 383.742,254.792 374.047,262.998C364.352,271.009 343.859,285.174 312.57,305.494C303.757,311.16 298.139,316.73 295.715,322.201C293.291,327.477 291.968,339.102 291.748,357.078L227.299,357.078L227.299,317.512C227.299,304.225 230.273,293.771 236.223,286.15C242.392,278.53 255.723,267.687 276.215,253.619C307.503,232.322 323.146,209.754 323.146,185.916C323.146,167.94 316.978,153.676 304.639,143.125C292.52,132.574 276.655,127.299 257.045,127.299C211.655,127.299 184.883,155.142 176.73,210.828L104.678,199.398C109.085,157.78 126.382,125.15 156.568,101.508C186.975,77.67 223.333,65.75 265.639,65.75ZM227.299,398.695L304.969,398.695L304.969,471.967L227.299,471.967L227.299,398.695Z" style="fill:rgb(75,75,75);fill-rule:nonzero;"/>
</svg>
